CLEARSCR
HOME
TO RECTANGLE :HEIGHT :WIDTH
  REPEAT 2 [ FORWARD :HEIGHT RIGHT 90 FORWARD :WIDTH RIGHT 90]
END

TO TRIANGLE :LENGTH
  RIGHT 45
  FORWARD :LENGTH * (SQRT 2) / 2
  RIGHT 90
  FORWARD :LENGTH * (SQRT 2) / 2
  RIGHT 135
  FORWARD :LENGTH
  RIGHT 90
END

TO HOUSE
  RECTANGLE 100 100
 
  FORWARD  100
  TRIANGLE 100
  BACK     100

  RIGHT     90
  FORWARD   60
  LEFT      180
  RECTANGLE 20 40
  FORWARD   60
  RIGHT     90
END

HOUSE