CLEARSCR
HOME
TO SQUARE
  REPEAT 4 [ FORWARD 100 RIGHT 90 ]
END

TO SETPEN :BRIGHTNESS
  SETPENCOLOR [255 255 - :BRIGHTNESS :BRIGHTNESS]
END

TO SQUAREFLOWER
  REPEAT 64 [ SETPEN REPCOUNT * 4 - 1 RIGHT 360 / 64 SQUARE]
END

SQUAREFLOWER