TO STAR :LENGTH :POINTS
  REPEAT :POINTS [ FORWARD :LENGTH RIGHT   180 - (180 / :POINTS) ]
END

TO TELEPORT
  PENUP
  RIGHT   RANDOM 360
  FORWARD RANDOM 1000
  PENDOWN
END

TO STARRYNIGHT
  REPEAT 30 [TELEPORT STAR (RANDOM 100 + 20) ((RANDOM 6) * 2 + 5)]
END

STARRYNIGHT