CLEARSCR
HOME
TO TRIANGLE :LENGTH
  REPEAT 3 [FORWARD :LENGTH RIGHT 120 ]
END

TO TRIANGLEFLOWER :LENGTH :COUNT
  REPEAT :COUNT [ TRIANGLE  :LENGTH RIGHT 360 / :COUNT]
END

TO WEB
  REPEAT 6 [ TRIANGLEFLOWER REPCOUNT * 25 18 ]
END

WEB